html/assets/images/static/google-play.svg

<svg width="169" height="55" viewBox="0 0 169 55" fill="none" xmlns="http://www.w3.org/2000/svg">
<path d="M27.1532 1.96313H141.847C156.019 1.96313 167.489 13.4325 167.489 27.6049C167.489 41.7772 156.019 53.2466 141.847 53.2466H27.1532C12.9809 53.2466 1.51147 41.7772 1.51147 27.6049C1.51147 13.469 12.9809 1.96313 27.1532 1.96313Z" stroke="white" stroke-width="2.7543"/>
<path d="M43.8457 27.0933L31.3901 15.4413C31.2805 15.7335 31.1709 16.0257 31.1709 16.4275V37.8687C31.1709 38.2705 31.2805 38.5627 31.3901 38.8549L43.8457 27.0933Z" fill="white"/>
<path d="M45.3071 27.0933L49.4712 30.9651L54.037 28.5543C55.4981 27.7873 55.4981 26.5088 54.037 25.7418L49.3616 23.2214L45.3071 27.0933Z" fill="white"/>
<path d="M44.5761 26.3995L48.4114 22.7103L33.7642 14.9667C33.1432 14.6745 32.5223 14.5649 32.1205 14.784L44.5761 26.3995Z" fill="white"/>
<path d="M44.5761 27.7509L32.1205 39.4759C32.5223 39.6586 33.1432 39.5855 33.8738 39.2933L48.594 31.5496L44.5761 27.7509Z" fill="white"/>
<path d="M64.3735 16.245C63.5334 16.245 62.8029 16.5372 62.2184 17.1216C61.634 17.7061 61.3418 18.4366 61.3418 19.3132C61.3418 20.1899 61.634 20.9204 62.2184 21.5048C62.8029 22.0893 63.5334 22.3815 64.3735 22.3815C65.5424 22.3815 66.5286 21.7605 67.04 20.8108V19.1306H64.337V19.9707H66.0903V20.6282C65.6885 21.2492 65.1406 21.5414 64.3735 21.5414C63.7526 21.5414 63.2412 21.3222 62.8394 20.9204C62.4376 20.4821 62.255 19.9707 62.255 19.3132C62.255 18.6923 62.4376 18.1444 62.8394 17.7426C63.2047 17.3408 63.716 17.1216 64.337 17.1216C65.0675 17.1216 65.6154 17.4504 66.0537 18.0713L66.7112 17.4869C66.1998 16.6833 65.3963 16.245 64.3735 16.245Z" fill="white"/>
<path d="M68.2091 16.3545V22.3083H72.0809V21.4682H69.1223V19.5688H71.2773V18.7287H69.1223V17.1946H71.9714V16.3545H68.2091Z" fill="white"/>
<path d="M72.5559 16.3545V17.1946H74.4918V22.3083H75.405V17.1946H77.3409V16.3545H72.5559Z" fill="white"/>
<path d="M80.2266 16.3545V22.3083H81.1397V16.3545H80.2266Z" fill="white"/>
<path d="M82.0165 16.3545V17.1946H83.9524V22.3083H84.8656V17.1946H86.8015V16.3545H82.0165Z" fill="white"/>
<path d="M92.3164 16.245C91.4763 16.245 90.7457 16.5372 90.1613 17.1216C89.5769 17.7061 89.2847 18.4366 89.2847 19.3132C89.2847 20.1899 89.5769 20.9204 90.1613 21.5048C90.7457 22.0893 91.4397 22.3815 92.3164 22.3815C93.1565 22.3815 93.8505 22.0893 94.4349 21.5048C95.0194 20.9204 95.3116 20.1899 95.3116 19.3132C95.3116 18.4366 95.0194 17.7061 94.4349 17.1216C93.887 16.5372 93.1565 16.245 92.3164 16.245ZM92.3164 17.1216C92.9008 17.1216 93.4122 17.3408 93.7774 17.7426C94.1792 18.1444 94.3619 18.6923 94.3619 19.3132C94.3619 19.9707 94.1792 20.4821 93.7774 20.8839C93.3757 21.2857 92.9008 21.5048 92.3164 21.5048C91.732 21.5048 91.2206 21.2857 90.8553 20.8839C90.4535 20.4456 90.2709 19.9342 90.2709 19.3132C90.2709 18.6923 90.4535 18.1444 90.8553 17.7426C91.2571 17.3408 91.732 17.1216 92.3164 17.1216Z" fill="white"/>
<path d="M100.243 20.3725L96.7732 16.245H96.4445V22.3084H97.3576V18.2905L100.864 22.418H101.193V16.3546H100.28V20.3725H100.243Z" fill="white"/>
<path d="M66.6382 26.7281C65.1406 26.7281 63.8987 27.2395 62.8759 28.2988C61.8532 29.3216 61.3418 30.6 61.3418 32.1341C61.3418 33.6682 61.8532 34.9467 62.8759 35.9694C63.8987 36.9922 65.1406 37.5035 66.6382 37.5035C68.6471 37.5035 70.4369 36.4077 71.3136 34.764V31.8419H66.6016V33.3395H69.7064V34.4718C69.0124 35.5311 68.0262 36.0425 66.7112 36.0425C65.6154 36.0425 64.7388 35.6772 64.0448 34.9467C63.3508 34.2161 63.022 33.2664 63.022 32.1341C63.022 31.0383 63.3508 30.1251 64.0082 29.3946C64.6657 28.6641 65.5424 28.2988 66.6016 28.2988C67.8435 28.2988 68.8663 28.8467 69.5968 29.9425L70.7657 28.9563C69.816 27.4587 68.428 26.7281 66.6382 26.7281Z" fill="white"/>
<path d="M75.9166 29.3945C74.8208 29.3945 73.8711 29.7963 73.104 30.5634C72.3369 31.3304 71.9717 32.3167 71.9717 33.449C71.9717 34.5813 72.3369 35.5675 73.104 36.3346C73.8711 37.1017 74.7842 37.5034 75.9166 37.5034C77.0124 37.5034 77.9255 37.1017 78.7291 36.3346C79.4962 35.531 79.898 34.5813 79.898 33.449C79.898 32.3167 79.4962 31.3304 78.7291 30.5634C77.9621 29.7963 77.0124 29.3945 75.9166 29.3945ZM75.9531 30.9286C76.6106 30.9286 77.1585 31.1843 77.5968 31.6592C78.0351 32.134 78.2543 32.7185 78.2543 33.449C78.2543 34.143 78.0351 34.764 77.5968 35.2388C77.1585 35.7136 76.6106 35.9328 75.9531 35.9328C75.2956 35.9328 74.7477 35.7136 74.3094 35.2388C73.8711 34.764 73.6519 34.143 73.6519 33.449C73.6519 32.7185 73.8711 32.134 74.3094 31.6592C74.7112 31.1478 75.2591 30.9286 75.9531 30.9286Z" fill="white"/>
<path d="M84.4268 29.3945C83.331 29.3945 82.3813 29.7963 81.6143 30.5634C80.8472 31.3304 80.4819 32.3167 80.4819 33.449C80.4819 34.5813 80.8472 35.5675 81.6143 36.3346C82.3813 37.1017 83.2945 37.5034 84.4268 37.5034C85.5226 37.5034 86.4358 37.1017 87.2394 36.3346C88.0064 35.531 88.4082 34.5813 88.4082 33.449C88.4082 32.3167 88.0064 31.3304 87.2394 30.5634C86.4723 29.7963 85.5226 29.3945 84.4268 29.3945ZM84.4633 30.9286C85.1208 30.9286 85.6687 31.1843 86.107 31.6592C86.5454 32.134 86.7645 32.7185 86.7645 33.449C86.7645 34.143 86.5454 34.764 86.107 35.2388C85.6687 35.7136 85.1208 35.9328 84.4633 35.9328C83.8059 35.9328 83.258 35.7136 82.8196 35.2388C82.3813 34.764 82.1622 34.143 82.1622 33.449C82.1622 32.7185 82.3813 32.134 82.8196 31.6592C83.2214 31.1478 83.7693 30.9286 84.4633 30.9286Z" fill="white"/>
<path d="M95.3481 30.673C94.7637 29.8329 93.887 29.3945 92.7182 29.3945C91.6589 29.3945 90.8188 29.7598 90.1248 30.4903C89.4308 31.2209 89.1021 32.134 89.1021 33.3029C89.1021 34.4352 89.4673 35.3849 90.1248 36.1154C90.8188 36.846 91.6589 37.2112 92.7182 37.2112C93.814 37.2112 94.6176 36.846 95.2385 36.1154V36.6633C95.2385 38.1244 94.3619 38.8915 93.0104 38.8915C92.1338 38.8915 91.2571 38.5262 90.3805 37.7957L89.5038 38.9645C90.4901 39.9507 91.6954 40.4256 93.0835 40.4256C95.3481 40.4256 96.8092 39.0376 96.8092 36.5903V29.6502H95.3481V30.673ZM92.9739 35.7136C92.3164 35.7136 91.805 35.4945 91.3302 35.0562C90.8919 34.5813 90.6727 33.9969 90.6727 33.3029C90.6727 32.6089 90.8919 32.0245 91.3302 31.5496C91.7685 31.1113 92.3164 30.8921 92.9739 30.8921C94.2158 30.8921 95.2385 31.6957 95.2385 33.2664C95.2385 34.0699 95.0194 34.6544 94.5811 35.0927C94.1062 35.4945 93.5948 35.7136 92.9739 35.7136Z" fill="white"/>
<path d="M98.3436 25.4862V37.3209H99.9508V25.4862H98.3436Z" fill="white"/>
<path d="M108.352 32.9378C108.352 31.915 108.023 31.0749 107.366 30.3809C106.708 29.6869 105.905 29.3582 104.918 29.3582C103.823 29.3582 102.909 29.76 102.179 30.527C101.448 31.2941 101.083 32.2803 101.083 33.4126C101.083 34.5815 101.448 35.5312 102.215 36.2982C102.983 37.0653 103.932 37.4671 105.101 37.4671C106.233 37.4671 107.22 37.0653 108.096 36.2252L107.329 35.0928C106.672 35.7138 105.941 36.006 105.138 36.006C103.859 36.006 102.909 35.239 102.69 33.9605H108.242C108.315 33.6318 108.352 33.2665 108.352 32.9378ZM104.845 30.8192C105.941 30.8192 106.745 31.5498 106.745 32.7186H102.69C102.946 31.5498 103.786 30.8192 104.845 30.8192Z" fill="white"/>
<path d="M113.027 26.9109V37.321H114.634V33.3031H116.68C117.703 33.3031 118.506 33.0108 119.164 32.4264C119.785 31.842 120.113 31.0384 120.113 30.0887C120.113 29.139 119.785 28.372 119.164 27.7875C118.543 27.2031 117.703 26.9109 116.68 26.9109H113.027ZM116.68 28.372C117.812 28.372 118.47 29.066 118.47 30.0887C118.47 31.1115 117.812 31.8055 116.68 31.8055H114.671V28.372H116.68Z" fill="white"/>
<path d="M121.026 25.4862V37.3209H122.634V25.4862H121.026Z" fill="white"/>
<path d="M127.054 29.3945C125.702 29.3945 124.643 29.9424 123.913 31.0382L124.826 32.0244C125.447 31.2574 126.141 30.8556 126.908 30.8556C127.93 30.8556 128.515 31.44 128.515 32.4993V33.0107H126.396C124.716 33.0107 123.657 33.8873 123.657 35.2388C123.657 36.5903 124.68 37.4669 126.25 37.4669C127.273 37.4669 128.077 37.1017 128.624 36.4076V37.2843H130.122V32.6089C130.122 30.5634 128.917 29.3945 127.054 29.3945ZM126.579 36.225C125.812 36.225 125.264 35.8598 125.264 35.2023C125.264 34.5813 125.702 34.2526 126.579 34.2526H128.478V34.3987C128.515 35.458 127.638 36.225 126.579 36.225Z" fill="white"/>
<path d="M134.578 35.2388L132.423 29.5771H130.706L133.701 36.9921L133.409 37.7226C133.044 38.5992 132.532 38.8549 131.765 38.8549C131.656 38.8549 131.364 38.8549 130.889 38.7819V40.1699C131.29 40.2795 131.729 40.316 132.131 40.316C133.409 40.316 134.249 39.6585 134.87 38.1974L138.523 29.5771H136.806L134.578 35.2388Z" fill="white"/>
</svg>

<svg width="169" height="55" fill="none" xmlns="http://www.w3.org/2000/svg"><path d="M27.153 1.963h114.694c14.172 0 25.642 11.47 25.642 25.642 0 14.172-11.47 25.642-25.642 25.642H27.153c-14.172 0-25.642-11.47-25.642-25.642 0-14.136 11.47-25.642 25.642-25.642z" stroke="#fff" stroke-width="2.754"/><path d="M43.846 27.093L31.39 15.441c-.11.292-.22.585-.22.986V37.87c0 .401.11.694.22.986l12.456-11.762zm1.461 0l4.164 3.872 4.566-2.41c1.461-.768 1.461-2.046 0-2.813l-4.675-2.52-4.055 3.871zm-.731-.693l3.835-3.69-14.647-7.743c-.62-.293-1.242-.402-1.644-.183l12.456 11.615zm0 1.35L32.12 39.477c.402.183 1.023.11 1.754-.183l14.72-7.743-4.018-3.8zm19.798-11.505c-.84 0-1.571.292-2.156.877-.584.584-.876 1.315-.876 2.191 0 .877.292 1.607.876 2.192.585.584 1.315.877 2.156.877a2.988 2.988 0 002.666-1.571v-1.68h-2.703v.84h1.753v.657c-.401.621-.95.913-1.716.913-.621 0-1.133-.219-1.535-.62-.401-.439-.584-.95-.584-1.608 0-.62.183-1.169.584-1.57.366-.402.877-.621 1.498-.621.73 0 1.278.328 1.717.95l.657-.585c-.511-.804-1.315-1.242-2.337-1.242zm3.836.11v5.953h3.87v-.84h-2.958v-1.9h2.155v-.84h-2.155v-1.533h2.85v-.84h-3.763zm4.346 0v.84h1.936v5.113h.913v-5.113h1.936v-.84h-4.785zm7.671 0v5.953h.913v-5.953h-.913zm1.789 0v.84h1.936v5.113h.914v-5.113h1.936v-.84h-4.786zm10.3-.11c-.84 0-1.57.292-2.155.877-.584.584-.876 1.315-.876 2.191 0 .877.292 1.607.876 2.192.585.584 1.279.877 2.155.877.84 0 1.534-.293 2.119-.877.584-.585.877-1.315.877-2.192 0-.876-.293-1.607-.877-2.191-.548-.585-1.279-.877-2.119-.877zm0 .877c.585 0 1.096.219 1.461.62.402.402.585.95.585 1.571 0 .658-.183 1.17-.585 1.57-.401.403-.876.622-1.46.622-.585 0-1.096-.22-1.462-.621-.401-.438-.584-.95-.584-1.57 0-.622.183-1.17.584-1.571.402-.402.877-.621 1.461-.621zm7.927 3.25l-3.47-4.127h-.328v6.063h.913v-4.017l3.506 4.127h.329v-6.063h-.913v4.017h-.037zm-33.605 6.356c-1.497 0-2.74.511-3.762 1.57-1.023 1.024-1.534 2.302-1.534 3.836 0 1.534.511 2.813 1.534 3.835 1.023 1.023 2.265 1.535 3.762 1.535 2.01 0 3.799-1.096 4.676-2.74v-2.922h-4.712v1.498h3.104v1.132c-.694 1.06-1.68 1.57-2.995 1.57-1.096 0-1.972-.365-2.666-1.095s-1.023-1.68-1.023-2.813c0-1.096.329-2.009.986-2.74.658-.73 1.534-1.095 2.594-1.095 1.242 0 2.264.548 2.995 1.643l1.169-.986c-.95-1.497-2.338-2.228-4.128-2.228zm9.279 2.667a3.862 3.862 0 00-2.813 1.168c-.767.767-1.132 1.754-1.132 2.886 0 1.132.365 2.119 1.132 2.886.767.767 1.68 1.168 2.813 1.168 1.095 0 2.008-.401 2.812-1.168.767-.804 1.169-1.754 1.169-2.886 0-1.132-.402-2.119-1.169-2.886a3.862 3.862 0 00-2.812-1.168zm.036 1.534c.658 0 1.206.255 1.644.73.438.475.657 1.06.657 1.79 0 .694-.219 1.315-.657 1.79-.438.475-.986.694-1.644.694-.657 0-1.205-.22-1.644-.694-.438-.475-.657-1.096-.657-1.79 0-.73.22-1.315.657-1.79.402-.511.95-.73 1.644-.73zm8.474-1.534a3.862 3.862 0 00-2.813 1.168c-.767.767-1.132 1.754-1.132 2.886 0 1.132.365 2.119 1.132 2.886.767.767 1.68 1.168 2.813 1.168 1.096 0 2.009-.401 2.812-1.168.767-.804 1.17-1.754 1.17-2.886 0-1.132-.403-2.119-1.17-2.886a3.862 3.862 0 00-2.812-1.168zm.036 1.534c.658 0 1.206.255 1.644.73.438.475.657 1.06.657 1.79 0 .694-.219 1.315-.657 1.79-.438.475-.986.694-1.644.694-.657 0-1.205-.22-1.643-.694-.439-.475-.658-1.096-.658-1.79 0-.73.22-1.315.658-1.79.401-.511.95-.73 1.643-.73zm10.885-.256c-.584-.84-1.461-1.278-2.63-1.278-1.06 0-1.9.365-2.593 1.095-.694.73-1.023 1.644-1.023 2.813 0 1.132.365 2.082 1.023 2.812.694.731 1.534 1.096 2.593 1.096 1.096 0 1.9-.365 2.52-1.096v.548c0 1.461-.876 2.229-2.228 2.229-.876 0-1.753-.366-2.63-1.096l-.876 1.169c.986.986 2.191 1.46 3.58 1.46 2.264 0 3.725-1.387 3.725-3.835v-6.94h-1.46v1.023zm-2.374 5.04c-.658 0-1.169-.218-1.644-.657-.438-.475-.657-1.06-.657-1.753 0-.694.219-1.278.657-1.753.439-.439.986-.658 1.644-.658 1.242 0 2.264.804 2.264 2.374 0 .804-.219 1.388-.657 1.827-.475.401-.986.62-1.607.62zm5.37-10.227v11.835h1.607V25.486h-1.607zm10.008 7.452c0-1.023-.329-1.863-.986-2.557-.658-.694-1.461-1.023-2.448-1.023-1.095 0-2.009.402-2.739 1.169-.731.767-1.096 1.753-1.096 2.886 0 1.169.365 2.118 1.132 2.885.768.767 1.717 1.17 2.886 1.17 1.132 0 2.119-.403 2.995-1.243l-.767-1.132c-.657.62-1.388.913-2.191.913-1.279 0-2.229-.767-2.448-2.045h5.552c.073-.33.11-.694.11-1.023zm-3.507-2.119c1.096 0 1.9.73 1.9 1.9h-4.055c.256-1.17 1.096-1.9 2.155-1.9zm8.182-3.909v10.411h1.607v-4.018h2.046c1.023 0 1.826-.292 2.484-.877.621-.584.949-1.388.949-2.337 0-.95-.328-1.717-.949-2.301-.621-.585-1.461-.877-2.484-.877h-3.653zm3.653 1.462c1.132 0 1.79.694 1.79 1.717 0 1.023-.658 1.716-1.79 1.716h-2.009v-3.433h2.009zm4.346-2.886v11.835h1.608V25.486h-1.608zm6.028 3.909c-1.352 0-2.411.547-3.141 1.643l.913.986c.621-.767 1.315-1.168 2.082-1.168 1.022 0 1.607.584 1.607 1.643v.512h-2.119c-1.68 0-2.739.876-2.739 2.228 0 1.351 1.023 2.228 2.593 2.228 1.023 0 1.827-.365 2.374-1.06v.877h1.498V32.61c0-2.046-1.205-3.215-3.068-3.215zm-.475 6.83c-.767 0-1.315-.365-1.315-1.023 0-.62.438-.95 1.315-.95h1.899v.147c.037 1.059-.84 1.826-1.899 1.826zm7.999-.986l-2.155-5.662h-1.717l2.995 7.415-.292.73c-.365.877-.877 1.133-1.644 1.133-.109 0-.401 0-.876-.073v1.388c.401.11.84.146 1.242.146 1.278 0 2.118-.658 2.739-2.119l3.653-8.62h-1.717l-2.228 5.662z" fill="#fff"/></svg>
